X:2954
T:Polska från Geresta
R:Polska
O:Geresta, Ångermanland
S:Utlärd av [[Personer/Marit Nordfors]]
Z:Karin Arén
M:3/4
L:1/8
K:Dm
|: (vA>f) (Tf<e) e>d | (vd<^c) A3 E/D/ | vD>^C DE FG | vAB/A/ (G>B) (vB/c/B/A/) | 
(uA>f) (Tf<e) (e>d) | (vd<^c) A2 va>(ua | (3g)eg ((3vfed) e>(vd | (3^c)=Bc ud4:|
|:(vA>f) (Tf<e) e>^c |(vd/^c/)d/f/ a3 (va | b)a g2 e>(vg | f)g/f/ !>!eg/f/ e>A | 
(vA>f) (uf/g/f/e/) e>^c | (vd/^c/)d/f/ a3 (vc' | b)a g2 e(vg | f)g/f/ !>!e(g/f/ e)>d | (3T^c=Bc d4 :|
(:musicend:)

Här är en variant med förslag till andrastämma:
(:music:)
